X:1
T:Title
%%score { ( 1 3 ) | ( 2 4 ) }
L:1/8
M:4/4
K:F
V:1 treble nm="Grand Piano"
V:3 treble 
V:2 bass 
V:4 bass 
V:1
 z4 z2[Q:1/4=104] C>C | F2 F2 F2 A2 | c4 A2 A>A | [EG]2 [FA]2 [GB]2 [EG]2 |[M:3/4] A6 | %5
[M:1/4] F>G |[M:4/4] A2 A2 A2 c2 | [Fd]4 [DFB]2 [CFA][B,DG] | [A,CF]2 [A,CF]2 [CFA]2 [B,EG]2 | %9
[M:3/4] [A,F]6 |[M:1/4] A>B |[M:4/4] c6 z2 | A6 z2 | z2 [FA]2 z4 |[M:3/4] [FA]6 |[M:1/4] A>[GB] | %16
[M:4/4] [Ac]2 [Ac]2 [Ac]2 A2 | B2 d4 [Fd]2 | [Fc]2 [A,CF]2 [CA]2 [B,EG]2 |[M:3/4] [A,F]6 |] %20
V:2
 z4 z2 [F,A,]>[F,A,] | [F,A,C]2 [F,A,C]2 [F,A,C]2 [F,CF]2 | [F,A,F]4 [F,CF]2 [F,CF]>[F,CF] | %3
 [C,C]2 [C,C]2 [C,C]2 [C,C]2 |[M:3/4] [F,CF]6 |[M:1/4] [F,A,C]>[F,B,C] | %6
[M:4/4] [F,CF]2 [F,CF]2 [F,CF]2 [F,A,F]2 | [B,,B,]4 B,,2 B,,B,, | C,2 C,2 C,2 C,2 |[M:3/4] F,6 | %10
[M:1/4][K:treble] F>G |[M:4/4] A6[K:bass][K:treble] z2 | F6[K:bass][K:treble] z2 | %13
 E2[K:bass] C,>C, C,2 C,2 |[M:3/4] F,2 F,2 F,2 |[M:1/4] [F,CF]>[F,C] | %16
[M:4/4][K:treble] [F,F]2 [F,F]2 [F,F]2 [F,CF]2 | [B,DF]2 [B,F]4[K:bass] [B,,B,]2 | %18
 [C,A,]2 C,2 C,2 C,2 |[M:3/4] F,6 |] %20
V:3
 x8 | x8 | x8 | x8 |[M:3/4] x6 |[M:1/4] x2 |[M:4/4] x8 | x8 | x8 |[M:3/4] x6 |[M:1/4] x2 | %11
[M:4/4] z2 A,>A, A,2 d>c | z2 C>C C2 B>A | G2 C>C [CGB]2 [CEc]2 |[M:3/4] C2 C2 C2 |[M:1/4] x2 | %16
[M:4/4] x8 | x8 | x8 |[M:3/4] x6 |] %20
V:4
 x8 | x8 | x8 | x8 |[M:3/4] x6 |[M:1/4] x2 |[M:4/4] x8 | x8 | x8 |[M:3/4] x6 | %10
[M:1/4][K:treble] x2 |[M:4/4] z2[K:bass] F,>F, F,2[K:treble] B>A | %12
 z2[K:bass] F,>F, F,2[K:treble] G>F | x2[K:bass] x6 |[M:3/4] x6 |[M:1/4] x2 |[M:4/4][K:treble] x8 | %17
 x6[K:bass] x2 | x8 |[M:3/4] x6 |] %20

